X: 34244
T: Reel With The Birl, The
R: reel
M: 4/4
K: Edorian
|:E2BE dEBE|~E2BE AGFD|~E2BE dEBc|dedB AGFD|
E2BE dEBE|~E2BE AGF2|GBEF GABc|1 dedB AGFD:|2 dedB A3A||
|:~BABd e3e|fddc d2ef|g3g gfe2|fa~a2 afdf|
gb bz fa az|gefd edBA|GFEF GABc|1 dedB A3A:|2 eddB AGFD||

